public/icons/events.svg

<svg width="36" height="36" viewBox="0 0 36 36" fill="none" xmlns="http://www.w3.org/2000/svg">
<path d="M18 5.06641L13.1836 9.84766L18 14.6641L22.8164 9.84766L18 5.06641ZM8.40234 14.6641V23.0664C10.207 23.6523 11.8008 23.9453 13.1836 23.9453C14.5898 23.9453 16.1953 24.8477 18 26.6523C19.8047 24.8477 21.3984 23.9453 22.7812 23.9453C24.1875 23.9453 25.793 23.6523 27.5977 23.0664V14.6641C25.793 15.25 24.1875 15.5547 22.7812 15.5781C21.3984 15.5781 19.8047 16.4688 18 18.25C16.1953 16.4453 14.5898 15.543 13.1836 15.543C11.8008 15.543 10.207 15.25 8.40234 14.6641ZM6.01172 17.0547V26.6523L15.6094 29.043V30.2383H20.3906V29.043L29.9883 26.6523V17.0547L28.793 17.3359V25.457L19.1953 27.8477V28.7617L18 29.043L16.8047 28.7617V27.8477L7.20703 25.457V17.3359L6.01172 17.0547Z" fill="currentColor"/>
</svg>

<?xml version="1.0" encoding="UTF-8"?>
<svg id="Layer_1" xmlns="http://www.w3.org/2000/svg" version="1.1" viewBox="0 0 36 36">
  <!-- Generator: Adobe Illustrator 29.4.0, SVG Export Plug-In . SVG Version: 2.1.0 Build 152)  -->
  <defs>
    <style>
      .st0 {
        fill: #fff;
      }
    </style>
  </defs>
  <path class="st0" d="M18,5.07l-4.82,4.78,4.82,4.82,4.82-4.82-4.82-4.78ZM8.4,14.66v8.4c1.8.59,3.4.88,4.78.88s3.01.9,4.82,2.71c1.8-1.8,3.4-2.71,4.78-2.71s3.01-.29,4.82-.88v-8.4c-1.8.59-3.41.89-4.82.91-1.38,0-2.98.89-4.78,2.67-1.8-1.8-3.41-2.71-4.82-2.71s-2.98-.29-4.78-.88ZM6.01,17.05v9.6l9.6,2.39v1.2h4.78v-1.2l9.6-2.39v-9.6l-1.2.28v8.12l-9.6,2.39v.91l-1.2.28-1.2-.28v-.91l-9.6-2.39v-8.12l-1.2-.28Z"/>
</svg>
